X: 4
T:Bad Hair
M:6/8
C:Rodney Miller 1985
R:Jig
K:G
dc|"G"ABG G2A|ABd ABD|"C"EGG c2d|"D"e2=f edc|
"G"ABG G2A|ABd ABD|"C"EGG "Am"G2B|"D"AGG "G"G:|
|:Bd|"C"e2e edc|e2"F"(=f f2) e|"G"d2B BAG|d2e d2d|
"C"e2e edc|e2"F"(=f f2) e|"G"d2B BAG|"D"AGG "G"G:|
